X: 19089
T: Irish Girl, The
R: slip jig
M: 9/8
K: Aminor
|:c2A AEA AEA|cBc Ace dcB|c2A AEA AEA|BAB gfe dBG:|
cde efd e2d|cde efd ged|cde efd efg|agf {a}gfe dBG|
cde efd e2d|cde efd ged|cde efd efg|agf {a}gfe ded||

